public/svg/usecases/slider/treasury.svg

<svg width="32" height="32" viewBox="0 0 32 32" fill="none" xmlns="http://www.w3.org/2000/svg">
<g clip-path="url(#clip0_225_2869)">
<path d="M11.7081 29.6503C11.581 29.6503 11.4561 29.6503 11.329 29.6503C11.2175 29.6503 11.1707 29.6076 11.1685 29.493C11.1662 29.3176 11.1685 29.1446 11.1685 28.9693C11.1685 28.9266 11.1551 28.9086 11.1127 28.8974C10.5107 28.7445 10.0001 28.4389 9.58309 27.9736C9.55856 27.9467 9.5318 27.9197 9.50727 27.8905C9.43592 27.7983 9.43592 27.7376 9.51842 27.6545C9.62545 27.5466 9.73694 27.441 9.84843 27.3353C9.95992 27.2275 10.0714 27.1218 10.1851 27.0139C10.3122 26.8926 10.3769 26.8903 10.5107 27.0049C10.6779 27.1465 10.8384 27.2949 11.0258 27.4073C11.3245 27.5871 11.6389 27.6747 11.9868 27.605C12.2677 27.5488 12.4216 27.3713 12.426 27.0993C12.426 26.9982 12.3904 26.9173 12.319 26.8476C12.1763 26.7083 12.0002 26.6251 11.8173 26.5599C11.4472 26.4296 11.0748 26.297 10.7314 26.1037C10.4215 25.9306 10.1405 25.7194 9.94654 25.4115C9.44038 24.6068 9.73025 23.6 10.5843 23.1842C10.7448 23.1055 10.912 23.0448 11.0882 23.0111C11.1573 22.9976 11.1729 22.9684 11.1707 22.9032C11.1662 22.7549 11.1685 22.6066 11.1707 22.4582C11.1707 22.3301 11.2287 22.2739 11.3558 22.2739C11.5877 22.2739 11.8195 22.2739 12.0514 22.2739C12.1919 22.2739 12.2633 22.3481 12.2633 22.4874C12.2633 22.6245 12.2655 22.7616 12.2633 22.8965C12.2633 22.9549 12.2767 22.9774 12.3369 22.9886C12.8252 23.0853 13.2533 23.3078 13.6212 23.6472C13.8085 23.8202 13.8085 23.9079 13.6346 24.0944C13.4517 24.2899 13.2689 24.4855 13.0861 24.681C12.979 24.7956 12.9032 24.8024 12.7828 24.7012C12.6423 24.5866 12.5063 24.4675 12.348 24.3798C12.0938 24.236 11.8262 24.1933 11.5408 24.2675C11.4739 24.2855 11.4115 24.3102 11.3558 24.3506C11.1818 24.4765 11.1595 24.7215 11.3089 24.8766C11.407 24.9777 11.5274 25.0384 11.6568 25.0856C11.94 25.189 12.2276 25.2856 12.5108 25.3912C12.8274 25.5081 13.1373 25.6407 13.4071 25.852C13.7684 26.1329 13.9579 26.4993 13.9847 26.9578C14.0315 27.8208 13.5276 28.4434 12.8675 28.74C12.6959 28.8164 12.5175 28.8771 12.3324 28.9108C12.2811 28.9198 12.2588 28.9378 12.261 28.9962C12.2655 29.1536 12.261 29.3131 12.261 29.4705C12.261 29.6076 12.2142 29.6548 12.0804 29.6548C11.9556 29.6548 11.8329 29.6548 11.7081 29.6548V29.6503Z" fill="#3B82F6"/>
<path d="M15.5852 5.68936C15.6142 5.69835 15.6409 5.70959 15.6699 5.72083C15.7011 5.73207 15.7323 5.74555 15.7613 5.75679C15.8082 5.77477 15.6878 5.72308 15.7569 5.75679C15.7859 5.77027 15.8148 5.78151 15.8416 5.795C16.1092 5.91636 16.3678 6.0602 16.6153 6.21978C17.3579 6.70075 17.9956 7.35702 18.417 8.15039C18.7314 8.74149 18.9098 9.40001 18.9677 10.0675C19.0034 10.4968 19.6746 10.5013 19.6367 10.0675C19.5296 8.81566 19.0614 7.65145 18.2252 6.71423C17.6812 6.10515 17.0011 5.60171 16.2653 5.2511C16.1025 5.17243 15.9353 5.09602 15.7636 5.03983C15.3533 4.90273 15.1771 5.55451 15.5852 5.68936Z" fill="#4389FA"/>
<path d="M10.8477 0.837083C10.87 1.99905 11.1085 3.19922 11.4809 4.29376C12.1454 6.25809 13.4476 8.06959 15.5369 8.59551C16.1456 8.74834 16.7811 8.79329 17.4054 8.75059C17.7867 8.72587 18.1658 8.66968 18.5381 8.59326C18.7232 8.55506 18.9172 8.53708 19.0242 8.36177C19.1803 8.10331 19.2695 7.75719 19.3498 7.46726C19.7065 6.18168 19.6731 4.75001 18.9863 3.57681C17.7176 1.42593 14.917 0.814608 12.6404 0.592104C12.1543 0.544906 11.6682 0.515688 11.1821 0.499955C10.7518 0.48647 10.7518 1.16073 11.1821 1.17421C12.8054 1.22815 14.4666 1.4102 15.9895 2.01703C16.8614 2.36315 17.7332 2.92952 18.2527 3.68244C18.4757 4.00383 18.6184 4.30051 18.7254 4.63763C18.779 4.80845 18.8213 4.98375 18.8525 5.15906C18.8592 5.19951 18.8659 5.23997 18.8726 5.28042C18.8793 5.32088 18.8726 5.26694 18.8793 5.34111C18.8882 5.43101 18.8971 5.52091 18.9016 5.60856C18.9172 5.91872 18.9016 6.22888 18.8637 6.53454C18.8748 6.45138 18.8481 6.63792 18.8414 6.67613C18.828 6.7503 18.8146 6.82222 18.799 6.89414C18.7745 7.01776 18.7433 7.13912 18.7121 7.26049C18.6541 7.46951 18.585 7.67628 18.5092 7.87855C18.4935 7.91901 18.4445 8.02914 18.498 7.90777C18.4958 7.91227 18.4668 7.97969 18.4668 7.97969C18.4668 7.97969 18.4423 8.03138 18.44 8.04037L18.6407 7.8853C17.5191 8.14601 16.3351 8.20444 15.2403 7.79989C14.4198 7.49872 13.7151 6.91886 13.1956 6.21764C12.2725 4.97476 11.8087 3.34082 11.6102 1.87094C11.5723 1.58775 11.5277 1.17646 11.521 0.837083C11.5121 0.403312 10.8432 0.403312 10.8521 0.837083H10.8477Z" fill="#4389FA"/>
<path d="M22.7853 6.59981C22.4219 6.656 22.0651 6.7931 21.7329 6.94143C21.006 7.26283 20.366 7.76403 19.8866 8.40457C19.5388 8.8698 19.2979 9.40921 19.153 9.97334C19.0438 10.3936 19.6904 10.5734 19.7974 10.1531C19.9156 9.69464 20.1007 9.26537 20.3705 8.87655C20.4753 8.72372 20.5979 8.57763 20.7361 8.43379C20.8053 8.36411 20.8744 8.29669 20.948 8.23151C20.9792 8.20454 21.0104 8.17757 21.0416 8.1506C21.0595 8.13487 21.0773 8.12138 21.0951 8.10565C21.0951 8.10565 21.1776 8.04272 21.1375 8.07194C21.4029 7.86966 21.6927 7.69885 21.9937 7.5595C22.0272 7.54377 22.0606 7.53028 22.0941 7.51455C22.0272 7.54377 22.1141 7.50781 22.1342 7.49882C22.1944 7.4741 22.2546 7.45162 22.3148 7.42915C22.4196 7.39094 22.5267 7.35723 22.6337 7.32801C22.7407 7.29879 22.8522 7.26957 22.9615 7.25159C23.1398 7.22462 23.238 6.99762 23.1956 6.8358C23.1421 6.64252 22.9637 6.57284 22.7831 6.59981H22.7853Z" fill="#4389FA"/>
<path d="M26.5938 3.94533C26.4556 4.67802 26.188 5.40846 25.8758 6.05575C25.3072 7.2312 24.4287 8.36844 23.1221 8.72355C22.1543 8.98876 21.1532 8.76176 20.2479 8.38193L20.482 8.61792C20.4686 8.56847 20.4553 8.51903 20.4441 8.46958C20.4307 8.41339 20.4196 8.3572 20.4107 8.30102C20.404 8.26506 20.3995 8.23134 20.3928 8.19538C20.3839 8.13695 20.3772 8.08301 20.3861 8.14819C20.3616 7.95265 20.3482 7.75712 20.346 7.55934C20.346 7.44696 20.3482 7.33458 20.3571 7.22446C20.3616 7.16602 20.3661 7.10758 20.3728 7.04915C20.3794 6.98172 20.3728 7.04915 20.3728 7.02892C20.3772 6.99071 20.3839 6.95475 20.3906 6.91655C20.482 6.37939 20.6715 5.90966 20.9904 5.53208C21.443 4.99492 22.0518 4.66453 22.7363 4.469C24.0519 4.09367 25.4856 4.17682 26.8257 4.36112C27.0063 4.38584 27.1825 4.31617 27.2382 4.12513C27.2828 3.9678 27.1825 3.73406 27.0041 3.70934C25.0263 3.43964 22.5735 3.28681 20.9235 4.65105C20.0405 5.38149 19.6503 6.51874 19.6771 7.64474C19.686 7.98412 19.7261 8.32799 19.7997 8.65837C19.8131 8.71905 19.8265 8.77974 19.851 8.83593C19.9692 9.09439 20.4441 9.18429 20.7005 9.2652C20.957 9.34611 21.2312 9.41129 21.5033 9.45175C22.4286 9.59109 23.3651 9.46748 24.1901 9.00449C24.9103 8.59994 25.4879 7.97962 25.9405 7.29638C26.5515 6.37714 27.0108 5.27136 27.2248 4.18357C27.2293 4.16334 27.2338 4.14311 27.236 4.12288C27.3163 3.6981 26.6719 3.5183 26.5916 3.94308L26.5938 3.94533Z" fill="#4389FA"/>
<path d="M21.5344 15.1043C22.1409 15.4931 22.705 15.9718 23.1398 16.5539C23.5144 17.0574 23.86 17.5833 24.2034 18.1092C24.7609 18.9655 25.2224 19.8331 25.5614 20.8062C26.1389 22.4627 26.3641 24.2921 25.8713 26.0025C25.6305 26.8386 25.0976 27.5623 24.3216 27.9736C23.8712 28.2118 23.2937 28.1084 22.8031 28.1039C22.2501 28.0972 21.6972 28.0927 21.1442 28.0859C19.5677 28.068 17.9913 28.05 16.4126 28.05C15.9823 28.05 15.9823 28.7242 16.4126 28.7242C17.8419 28.7242 19.2712 28.74 20.7027 28.7557C21.2913 28.7625 21.8822 28.7692 22.4709 28.7737C23.0216 28.7804 23.6393 28.8681 24.1811 28.7422C24.6583 28.6321 25.0686 28.3085 25.4276 27.9893C25.7643 27.6904 26.0408 27.3195 26.237 26.9105C26.5937 26.1643 26.7387 25.3125 26.7922 24.4922C26.8613 23.4651 26.7208 22.4267 26.4555 21.4355C26.1433 20.2713 25.6639 19.1386 25.0128 18.1272C24.6204 17.5181 24.2235 16.909 23.7976 16.3224C23.2714 15.5987 22.6225 15.0032 21.8711 14.5222C21.5054 14.2884 21.1709 14.8728 21.5344 15.1043Z" fill="#181D27"/>
<path d="M16.6555 14.3245C16.0936 14.7853 15.5785 15.3157 15.088 15.8551C14.5974 16.3945 14.147 16.9541 13.7256 17.5407C13.3264 18.0981 12.9095 18.6915 12.6308 19.3208C12.4613 19.7028 12.303 20.0917 12.1402 20.476C11.9774 20.8603 12.5483 21.2154 12.7177 20.8154C12.8627 20.476 13.0076 20.1344 13.1503 19.795C13.3889 19.2354 13.7278 18.7139 14.069 18.2127C14.7914 17.1519 15.641 16.1742 16.573 15.2955C16.7536 15.1269 16.9342 14.9561 17.126 14.801C17.4604 14.5268 16.9833 14.0526 16.6533 14.3245H16.6555Z" fill="#181D27"/>
<path d="M21.2802 14.6009C21.2668 14.8818 21.055 14.9784 20.8097 15.0009C20.4396 15.0346 20.0695 15.0571 19.6993 15.0661C19.3292 15.0751 18.939 15.0728 18.5577 15.0571C18.2321 15.0436 17.8263 15.0706 17.5119 14.9717C16.9901 14.8076 17.2912 14.1199 17.6747 13.9963C17.9623 13.9041 18.3325 13.9895 18.6313 13.9963C19.0282 14.0075 19.4251 14.0075 19.822 13.9963C20.036 13.9918 20.2501 13.9828 20.4641 13.9716C20.6068 13.9648 20.7451 13.9513 20.8811 14.0075C21.1197 14.1042 21.278 14.3401 21.278 14.5986C21.278 15.0324 21.9469 15.0324 21.9469 14.5986C21.9469 14.2278 21.7819 13.8547 21.501 13.612C21.1554 13.3153 20.7718 13.2816 20.337 13.304C19.8108 13.3288 19.2846 13.3355 18.7606 13.3243C18.3235 13.3153 17.8308 13.2141 17.4116 13.3737C16.6847 13.6502 16.2811 14.6166 16.8028 15.2661C17.1016 15.6392 17.5364 15.6617 17.9779 15.6954C18.4908 15.7359 19.0059 15.7516 19.5209 15.7426C20.036 15.7336 20.6314 15.7516 21.1442 15.6302C21.6236 15.5156 21.9246 15.0796 21.9469 14.5986C21.967 14.1648 21.2981 14.1648 21.278 14.5986L21.2802 14.6009Z" fill="#181D27"/>
<path d="M21.3262 13.8007C21.8502 13.1332 22.3296 12.3915 22.6195 11.5914C22.7823 11.1442 22.896 10.58 22.6351 10.1463C22.3363 9.65181 21.8012 9.73496 21.4132 10.0901C21.4199 10.0833 21.2727 10.2249 21.2749 10.2317H21.3351C21.4065 10.2429 21.4132 10.2317 21.3597 10.2002C21.3374 10.153 21.2348 10.1013 21.1924 10.0743C21.0676 9.98893 20.9293 9.92151 20.7866 9.87431C20.4365 9.75744 20.0575 9.80464 19.7319 9.9732C19.6383 10.0226 19.5535 10.0833 19.471 10.1463C19.4354 10.1755 19.3997 10.2137 19.3596 10.2362C19.3194 10.2586 19.5156 10.2923 19.364 10.2452C19.2436 10.2069 19.1076 10.0384 18.9894 9.9732C18.6862 9.80913 18.3316 9.73497 17.9949 9.8361C17.7898 9.89679 17.6092 10.0159 17.4531 10.1575C17.4442 10.1642 17.3416 10.2609 17.3438 10.2654L17.4553 10.2519L17.4241 10.2317C17.404 10.1957 17.3149 10.1642 17.2814 10.144C17.0651 10.0226 16.8198 9.91027 16.5657 9.90578C15.7741 9.88555 15.7674 10.8587 15.9413 11.4071C16.0818 11.8521 16.3204 12.2836 16.5121 12.7062C16.6905 13.0973 16.8689 13.4861 17.0451 13.8771C17.2212 14.2682 17.8009 13.9288 17.6226 13.5378C17.3282 12.8905 17.0317 12.2432 16.7373 11.5959C16.6771 11.4611 16.6125 11.3285 16.5723 11.1869C16.5211 11.0138 16.5077 10.8452 16.5144 10.6654C16.5144 10.6452 16.5233 10.598 16.53 10.5868C16.5277 10.5935 16.4854 10.6092 16.5389 10.58C16.5924 10.5508 16.8421 10.6722 16.9425 10.7284C17.1833 10.8655 17.4241 11.0071 17.6961 10.8385C17.8589 10.7396 17.957 10.5688 18.1399 10.4991C18.267 10.4497 18.3985 10.4564 18.5256 10.4991C18.7754 10.5868 18.927 10.8295 19.1678 10.9149C19.5915 11.0655 19.7877 10.6564 20.1333 10.5216C20.3763 10.4272 20.6216 10.4969 20.829 10.6362C21.0809 10.8048 21.3084 10.9868 21.6205 10.8025C21.7677 10.7149 21.8547 10.5553 22.0041 10.4722C22.0264 10.4609 22.0665 10.4519 22.0665 10.4519C22.0754 10.4362 22.0085 10.4452 22.0331 10.4429C21.9974 10.4474 21.9818 10.3733 22.0085 10.4272C22.0241 10.4564 22.0442 10.4677 22.0554 10.4834C22.0843 10.5261 22.1066 10.5935 22.1133 10.6362C22.1445 10.825 22.0955 11.025 22.042 11.2048C21.8903 11.7195 21.6116 12.196 21.324 12.6433C21.2103 12.8186 21.0943 12.9916 20.9717 13.1602C20.9338 13.2119 20.8959 13.2613 20.858 13.313C20.8045 13.3849 20.8981 13.2613 20.8513 13.3198C20.5859 13.6569 21.0564 14.1379 21.324 13.7962L21.3262 13.8007Z" fill="#181D27"/>
<path d="M21.88 14.3739C22.0494 14.0211 22.4307 13.7941 22.7652 13.6165C23.1799 13.394 23.5835 13.4052 24.0428 13.4412C24.3996 13.4682 24.7586 13.4704 25.0953 13.3356C25.4744 13.185 25.7954 12.9378 26.0809 12.6478C26.3841 12.3399 25.9114 11.8634 25.6081 12.1714C25.3629 12.4208 25.0819 12.6546 24.7385 12.7467C24.3684 12.8479 23.9113 12.731 23.501 12.74C23.0461 12.749 22.6269 12.9063 22.2434 13.1445C21.8599 13.3828 21.4987 13.6367 21.3047 14.0368C21.1107 14.4369 21.6927 14.7672 21.8822 14.3762L21.88 14.3739Z" fill="#181D27"/>
<path d="M21.7092 14.8887C22.4406 14.6909 23.2143 14.7988 23.8565 15.2101C24.1062 15.3697 24.3247 15.572 24.5165 15.799C24.5343 15.8192 24.5522 15.8417 24.5678 15.8619C24.5745 15.8709 24.6302 15.9428 24.6079 15.9113C24.5834 15.8776 24.628 15.9383 24.6325 15.9451C24.6481 15.9653 24.6614 15.9855 24.677 16.008C24.7172 16.0664 24.7551 16.1271 24.793 16.1878C25.0137 16.5586 25.5935 16.2215 25.3705 15.8484C25.0717 15.3472 24.6503 14.9134 24.1575 14.6055C23.3749 14.1201 22.4183 14.0032 21.5353 14.2414C21.1206 14.3538 21.2967 15.0033 21.7137 14.891L21.7092 14.8887Z" fill="#181D27"/>
<path d="M16.5715 25.962C16.5559 27.9915 15.2827 29.8705 13.3673 30.5492C11.452 31.2302 9.30024 30.6234 8.00251 29.0524C6.7137 27.4903 6.55985 25.1956 7.59 23.4605C8.62016 21.7255 10.7005 20.777 12.6806 21.1816C14.9282 21.64 16.5515 23.6561 16.5693 25.9598C16.5715 26.3935 17.2405 26.3935 17.2382 25.9598C17.2204 23.6403 15.7755 21.5501 13.6126 20.7478C11.4564 19.9454 8.92564 20.6489 7.48074 22.4492C6.03585 24.2494 5.82848 26.8116 7.01026 28.8029C8.19204 30.7942 10.5511 31.8438 12.8188 31.3988C15.3719 30.8976 17.2159 28.5624 17.236 25.962C17.2382 25.5282 16.5693 25.5282 16.5671 25.962H16.5715Z" fill="#181D27"/>
</g>
<defs>
<clipPath id="clip0_225_2869">
<rect width="21" height="31" fill="white" transform="translate(6.25 0.5)"/>
</clipPath>
</defs>
</svg>

<svg xmlns="http://www.w3.org/2000/svg" width="32" height="32" fill="none" viewBox="0 0 32 32"><g clip-path="url(#a)"><path fill="#3b82f6" d="M11.708 29.65h-.379c-.112 0-.158-.042-.16-.157-.003-.175 0-.348 0-.524 0-.042-.014-.06-.056-.072a3 3 0 0 1-1.53-.923l-.076-.084c-.071-.092-.071-.152.011-.236q.162-.16.33-.319l.337-.321c.127-.121.192-.124.326-.01.167.142.327.29.515.403.299.18.613.268.96.198.282-.056.436-.234.44-.506a.33.33 0 0 0-.107-.251 1.3 1.3 0 0 0-.502-.288c-.37-.13-.742-.263-1.086-.456-.31-.173-.59-.385-.784-.692a1.53 1.53 0 0 1 .637-2.228c.16-.079.328-.14.504-.173.07-.013.085-.043.083-.108-.005-.148-.002-.296 0-.445 0-.128.058-.184.185-.184h.695c.14 0 .212.074.212.213q.002.207 0 .41c0 .058.014.08.074.092.488.096.916.319 1.284.658.188.173.188.26.014.447l-.549.587c-.107.115-.183.121-.303.02-.14-.114-.277-.233-.435-.321a1.05 1.05 0 0 0-.807-.113.6.6 0 0 0-.185.084.347.347 0 0 0-.047.526.9.9 0 0 0 .348.209c.283.103.57.2.854.305.316.117.626.25.896.461.361.28.55.647.578 1.106.046.863-.457 1.485-1.117 1.782a2.3 2.3 0 0 1-.536.17c-.05.01-.073.028-.071.086.005.158 0 .317 0 .475 0 .137-.047.184-.18.184h-.373z"/><path fill="#4389fa" d="M15.585 5.69q.043.013.085.03l.091.037c.047.018-.073-.034-.004 0l.085.038q.402.183.773.425a5.3 5.3 0 0 1 1.802 1.93c.314.591.493 1.25.55 1.918.036.429.708.433.67 0-.107-1.252-.576-2.417-1.412-3.354a6.26 6.26 0 0 0-2.461-1.674c-.41-.137-.587.515-.179.65"/><path fill="#4389fa" d="M10.848.837c.022 1.162.26 2.362.633 3.457.664 1.964 1.967 3.776 4.056 4.302a6 6 0 0 0 1.868.155 8 8 0 0 0 1.133-.158c.185-.038.38-.056.486-.231.156-.259.245-.605.326-.895.356-1.285.323-2.717-.364-3.89C17.718 1.426 14.917.815 12.64.592A23 23 0 0 0 11.182.5c-.43-.014-.43.66 0 .674 1.623.054 3.285.236 4.807.843.872.346 1.744.913 2.264 1.665.223.322.365.619.472.956q.08.257.127.521l.02.121c.007.04 0-.013.007.061q.015.135.023.268.02.466-.038.926c.01-.084-.016.103-.023.141l-.042.218c-.024.124-.056.245-.087.366a7 7 0 0 1-.203.619c-.015.04-.064.15-.011.029l-.031.072s-.025.051-.027.06l.2-.155c-1.12.261-2.305.32-3.4-.085-.82-.301-1.525-.881-2.044-1.582-.923-1.243-1.387-2.877-1.586-4.347a10 10 0 0 1-.089-1.034c-.009-.434-.678-.434-.669 0zM22.785 6.6c-.363.056-.72.193-1.052.341a4.66 4.66 0 0 0-1.846 1.464 4.5 4.5 0 0 0-.734 1.568c-.11.42.537.6.644.18.119-.458.304-.888.573-1.276a3.5 3.5 0 0 1 .578-.645l.094-.081.053-.045s.083-.063.043-.034c.265-.202.555-.373.856-.512l.1-.045a6 6 0 0 1 .22-.085 4 4 0 0 1 .648-.178c.178-.027.276-.254.234-.416-.054-.193-.232-.263-.413-.236z"/><path fill="#4389fa" d="M26.594 3.945a8.7 8.7 0 0 1-.718 2.11c-.569 1.176-1.447 2.313-2.754 2.669-.968.265-1.969.038-2.874-.342l.234.236a4 4 0 0 1-.071-.317l-.018-.106c-.01-.058-.016-.112-.007-.047a5 5 0 0 1-.04-.589q-.001-.168.011-.335l.016-.175c.006-.067 0 0 0-.02q.006-.056.018-.112c.091-.538.28-1.007.6-1.385.452-.537 1.06-.867 1.745-1.063 1.316-.375 2.75-.292 4.09-.108.18.025.357-.045.412-.236.045-.157-.055-.39-.234-.416-1.978-.27-4.43-.422-6.08.942-.883.73-1.274 1.868-1.247 2.994.009.34.05.683.123 1.013a1 1 0 0 0 .051.178c.118.258.593.348.85.43.256.08.53.145.802.186.926.14 1.862.015 2.687-.448.72-.404 1.298-1.024 1.75-1.708a8.9 8.9 0 0 0 1.285-3.112q.007-.03.011-.061c.08-.425-.564-.605-.644-.18z"/><path fill="#181d27" d="M21.534 15.104c.607.39 1.171.868 1.606 1.45.374.503.72 1.03 1.063 1.555.558.856 1.02 1.724 1.358 2.697.578 1.657.803 3.486.31 5.197-.24.836-.773 1.56-1.55 1.97-.45.239-1.027.135-1.518.13l-1.659-.017a414 414 0 0 0-4.731-.036c-.43 0-.43.674 0 .674 1.429 0 2.858.016 4.29.032l1.768.018c.55.006 1.168.094 1.71-.032.477-.11.888-.434 1.247-.753a3.4 3.4 0 0 0 .809-1.079c.357-.746.502-1.598.555-2.418.07-1.027-.071-2.065-.337-3.056a11.8 11.8 0 0 0-1.442-3.309 41 41 0 0 0-1.215-1.805 7.1 7.1 0 0 0-1.927-1.8c-.366-.234-.7.35-.337.582m-4.878-.779c-.562.46-1.077.99-1.568 1.53a19 19 0 0 0-1.362 1.686c-.4.557-.817 1.15-1.095 1.78-.17.382-.328.77-.49 1.155-.164.384.407.74.577.34q.218-.511.432-1.021c.239-.56.578-1.081.919-1.582a17.8 17.8 0 0 1 2.504-2.918c.18-.168.361-.339.553-.494.334-.274-.143-.748-.473-.476z"/><path fill="#181d27" d="M21.28 14.6c-.013.282-.225.378-.47.4a17 17 0 0 1-2.252.057c-.326-.013-.732.014-1.046-.085-.522-.164-.22-.852.163-.976.287-.092.657-.007.956 0q.595.016 1.191 0 .321-.007.642-.024c.143-.007.281-.02.417.036a.64.64 0 0 1 .397.59c0 .434.669.434.669 0 0-.37-.165-.743-.446-.986-.346-.297-.73-.33-1.164-.308a23 23 0 0 1-1.576.02c-.437-.009-.93-.11-1.35.05-.726.276-1.13 1.243-.608 1.892.299.373.733.396 1.175.43q.77.06 1.543.047c.515-.01 1.11.009 1.623-.113.48-.114.78-.55.803-1.031.02-.434-.649-.434-.669 0z"/><path fill="#181d27" d="M21.326 13.8c.524-.667 1.004-1.408 1.293-2.209.163-.447.277-1.011.016-1.445-.299-.494-.834-.411-1.222-.056.007-.007-.14.135-.138.142h.06q.106.015.025-.032c-.023-.047-.125-.099-.168-.126a1.6 1.6 0 0 0-.405-.2 1.36 1.36 0 0 0-1.055.1 2 2 0 0 0-.261.172c-.036.03-.071.068-.111.09-.04.023.156.056.004.01-.12-.04-.256-.208-.375-.273-.303-.164-.657-.238-.994-.137-.205.06-.386.18-.542.322a1 1 0 0 0-.11.107l.112-.013-.03-.02c-.021-.036-.11-.068-.144-.088-.216-.121-.461-.234-.715-.238-.792-.02-.799.953-.625 1.501.14.445.38.877.571 1.3q.268.585.533 1.17c.176.391.756.052.578-.34l-.886-1.941c-.06-.135-.124-.268-.165-.41a1.6 1.6 0 0 1-.058-.52c0-.02.01-.068.016-.08-.002.008-.045.023.009-.006.053-.03.303.092.403.148.241.138.482.28.754.11.163-.098.261-.27.444-.339a.56.56 0 0 1 .386 0c.25.088.401.33.642.416.424.15.62-.259.965-.393.243-.095.489-.025.696.114.252.169.48.35.791.167.148-.088.235-.248.384-.33.022-.012.063-.021.063-.021.008-.016-.058-.007-.034-.01-.036.005-.051-.069-.024-.015.015.03.035.04.046.056.03.043.052.11.058.153.032.189-.017.389-.071.569-.152.515-.43.991-.718 1.438q-.17.265-.352.517l-.114.153c-.053.072.04-.052-.007.007-.265.337.205.818.473.476zm.554.574c.17-.353.55-.58.885-.758.415-.222.819-.21 1.278-.175.357.027.716.03 1.052-.105.38-.151.7-.398.986-.688.303-.308-.17-.785-.473-.477-.245.25-.526.484-.87.576-.37.1-.827-.016-1.237-.007-.455.009-.874.166-1.258.405-.383.238-.744.492-.938.892s.388.73.577.34z"/><path fill="#181d27" d="M21.71 14.889a2.67 2.67 0 0 1 2.146.321 3 3 0 0 1 .752.701l.024.034q.023.03.045.063.06.088.116.18c.22.37.8.034.578-.34a3.7 3.7 0 0 0-1.213-1.243 3.34 3.34 0 0 0-2.623-.364c-.414.113-.238.762.179.65zm-5.138 11.073c-.016 2.03-1.29 3.909-3.205 4.587a4.87 4.87 0 0 1-5.364-1.497c-1.29-1.562-1.443-3.856-.413-5.591s3.11-2.684 5.09-2.28c2.248.459 3.872 2.475 3.89 4.779.002.433.67.433.668 0-.018-2.32-1.463-4.41-3.625-5.212-2.157-.803-4.687-.1-6.132 1.701-1.445 1.8-1.653 4.363-.47 6.354a5.56 5.56 0 0 0 5.808 2.596c2.553-.501 4.397-2.837 4.417-5.437.002-.434-.667-.434-.669 0z"/></g><defs><clipPath id="a"><path fill="#fff" d="M6.25.5h21v31h-21z"/></clipPath></defs></svg>
